!!!COM:	Bach, Johann Sebastian
!!!CDT:	1685/02/21/-1750/07/28/
!!!OTL@@DE:	Christ lag in Todesbanden
!!!SCT:	BWV 4/8
!!!PC#:	184
!!!AGN:	chorale
**kern	**kern	**kern	**kern
*ICvox	*ICvox	*ICvox	*ICvox
*Ibass	*Itenor	*Ialto	*Isoprn
*I"Bass	*I"Tenor	*I"Alto	*I"Soprano
*>[A,A,B]	*>[A,A,B]	*>[A,A,B]	*>[A,A,B]
*>norep[A,B]	*>norep[A,B]	*>norep[A,B]	*>norep[A,B]
*>A	*>A	*>A	*>A
*clefF4	*clefGv2	*clefG2	*clefG2
*k[]	*k[]	*k[]	*k[]
*d:dor	*d:dor	*d:dor	*d:dor
*M4/4	*M4/4	*M4/4	*M4/4
*met(c)	*met(c)	*met(c)	*met(c)
*MM100	*MM100	*MM100	*MM100
4D	8dL	4f	4a
.	8cJ	.	.
=1	=1	=1	=1
8EL	4B	4e	4g#
8D	.	.	.
8C	8cL	4e	8aL
8BBJ	8G#J	.	8bJ
4AA	4A	4e	4cc
4GG#	4B	4e	4dd
=2	=2	=2	=2
4AA	4A	4e	4cc
4EE	4G#	8eL	4b
.	.	8dJ	.
4AA;	4E;	4c#;	4a;
4C#	4A	4e	4a
=3	=3	=3	=3
4D	8AL	4d	4f
.	8B-J	.	.
4E	8AL	4cnX	4g
.	8GnXJ	.	.
8FL	8FL	8cL	4a
8EJ	8GJ	8c#J	.
4D	4A	4d	8gL
.	.	.	8fJ
=4	=4	=4	=4
8GGL	4B-	4d	8eL
16AAL	.	.	8dJ
16BB-XJJ	.	.	.
4AA	8EL	4c#	4e
.	8GJ	.	.
2DD;	2F;	2A;	2d;
=5:|!	=5:|!	=5:|!	=5:|!
*>B	*>B	*>B	*>B
4.D	8FL	4A	8dL
.	8GJ	.	8eJ
.	4A	4d	4f
8C	.	.	.
8BB-L	8GL	4.d	4g
8AAJ	8AJ	.	.
4GG	4B-X	.	8dL
.	.	8c#	8eJ
=6	=6	=6	=6
4D	4A	4d	4f
4E	4G	4cnX	4g
4F;	4F;	4c;	4a;
8FL	4c	8fL	4a
8EJ	.	8gJ	.
=7	=7	=7	=7
4D	4f	4a	4dd
4E	4e	4g	4cc#
4F#	8dL	4a	4dd
.	8cnXJ	.	.
4G#	4B	4e	8eeL
.	.	.	8ddJ
=8	=8	=8	=8
4A	4A	4e	4ccnX
4E	4G#	8eL	4b
.	.	8dJ	.
4AA;	4E;	4c;	4a;
4D	4FnX	4d	4b
=9	=9	=9	=9
4C	4GnX	4e	4cc
4F	4F	4c	8aL
.	.	.	8b-J
8AAL	4F	4f	4cc
8BB-J	.	.	.
4C	8cL	[4e	4g
.	8B-XJ	.	.
=10	=10	=10	=10
4D	4A	8e]	4f
.	.	4d	.
4AA	4G	.	4e
.	.	8c#	.
2BB-;	2F;	2d;	2d;
=11	=11	=11	=11
4F	4F	8cnXL	4a
.	.	8dJ	.
4C#	8EL	[4e	4g
.	8AJ	.	.
4D	4A	8eL]	2f
.	.	8c#J	.
4BB-	[4B-	[4d	.
=12	=12	=12	=12
4GG	4B-]	4d]	2e
4AA	8GL	4c#	.
.	8FJ	.	.
2DD;	2F#;	2A;	2d;
==	==	==	==
*-	*-	*-	*-
!!!hum2abc: -Q ''
!!!title: @{PC#}. @{OTL@@DE}
!!!YOR1: 371 vierstimmige Choralges&auml;nge von Johann Sebastian Bach, 
!!!YOR2: 4th ed. by Alfred D&ouml;rffel (Leipzig: Breitkopf und H&auml;rtel, 
!!!YOR2: c.1875). 178 pp. Plate "V.A.10".  reprint: J.S. Bach, 371 Four-Part 
!!!YOR4: Chorales (New York: Associated Music Publishers, Inc., c.1940).
!!!SMS: B&H, 4th ed, Alfred D&ouml;rffel, c.1875, plate V.A.10
!!!EED:  Craig Stuart Sapp
!!!EEV:  2009/05/22
